X: 15755
T: Good Drying
R: reel
M: 4/4
K: Amixolydian
c/c/c GA GccG|d/d/d Gd eGdG|c/c/c GA GccG|d/d/d GB AAAG|
c/c/c GA GccG|d/d/d Gd eGdG-|Gccd eA A/A/A|cddG A4:|
|:c3d eeef|g2ge BccG-|Gccd eA A/A/A|cddG AAAG|
c3d eeef|g2ge BccG-|Gccd eA A/A/A|cddG A4:|
|:c/c/c GA GccG|d/d/d Gd GddG|c/c/c GA GccG|d/d/d GB AAAG|
c/c/c GA GccG|d/d/d Gd eGdG-|Gccd eA A/A/A|cddG A4:|
|:c3d eA A/A/A|cddG cddG-|Gccd eA A/A/A|cddG AAAG|
c3d eA A/A/A|cddG cddG|eA A/A/A AeeA|cddG A4:|

